!!! OTL: Berkowitz518
!!! Chapter: 1
!!! Section: IV
!!! Page: 130
!!! Mode: 
!!! Encoder: DJB
**kern
*staff1
*I"Piano
=1-
*clefG2
*k[b-]
*F:
*M4/4
8r
8c/L
8f/
8b-/J
8a/L
8f/
8a/
8dd/J
=2
[1cc
=3
8cc/L]
8e-/
8a-/
8dd-/J
8cc\L
8a-\
8cc\
8ff\J
=4
[2ee-\
8ee-\L]
8cc\
8a-\
8f\J
=5
4.e-/
[8dd-\
8dd-/L]
8cc/
8a-/
8e-/J
=6
4.d-/
[8b-\
8b-/L]
8a/
8f/
8d-/J
=7
!!linebreak:original
8Bn/L
8c/
8e/
8f/J
8g/L
8b-/
8dd/
8e/J
=8
4.g/
16a/LL
16g/JJ
2f/
==
*-
